!!!OTL: Abschied vom Liebchen (171a), S. 374
!!!id: T0347
**kern
*clefG2
*k[f#]
*G:
{8d
8g
8a
=1
4.b
8g
8a
8g
=2
8f#
8e}
4r
=3
{8a
8b
=4
4dd
4cc
8e
8f#
=5
4g}
8r
=6
{8d
8g
8a
=7
4.b
8g
8a
8g
=8
8f#
8e}
4r
=9
{8a
8b
=10
4dd
4cc
8e
8f#
=11
4g}
8r
=12
{8d
8e
8d
=13
4.ee
8dd
8dd
8cc
=14
4a}
8r
=15
{8a
8a
8b
=16
*M4/4
4.ff#
8ee
8dd
8dd
8cc
8f#
=17
4g}
8r
==
*-
!!!minrhy: 8
!!!meters: 3/4 4/4]  ZZ[6
!!!cut: Abschied vom Liebchen (171a), S. 374
!!!reg: Luxemburg
!!!trd: Singendes Volk, Esch-Alzette, 1937 posth.
!!!rhy1: XXX  X_.XXX  XX0_
!!!rhy2: XX  X_X_XX  X_0
!!!key: T0347  08  G 3/4 4/4]  ZZ[6
!!!mod: HEPTATONIK IONISCH]  AMBITUS[10
!!!kad: -61-6121
!!!akz: 3-7_51_3-7_51_62_751_
!!!fot: 'a__b__a__b__c__d__
!!!for: 'a__b__a__b__aw_aw_
!!!fok: '^a_~d_^a_~d_^a_^d_
!! PHRAS[AUFTAKTIG]
!!!fkt: Abschieds- und Wanderlieder, Heimatlieder,  Liebeslied
!!!bem1: Medernach, fff Leny Goeres, Savelborn, 7.2.1916;
!!!bem2: (171b)- StraPen, fff Witry, 17.1.1933
!! THILL, Mathias:
!! PR[31] 2K[3] 2G[17] 3K[3] 3G[0] 4A[11] 4Ü[0] 5A[0] 6K[0] 6G[0]
!! 7K[0] 7G[0] 8A[0] MEHR[0] SI[33] ABS[36] SR[19] SP[14]
!! ST[16] 2k[6] 2g[8] 3k[6] 3g[11] 4d[6] 4ü[0] 5d[0] 6k[0] 6g[0]
!! 7k[0] 7g[0] 8d[0] mehr[0] si[36] dm[-3] sr[14] sp[22]
!! 1F[32] 2F[68] 3F[0] 4F[0] LF[0] 2P[0] 3P[0] 4P[0] TRI[0] DF[2] AB[38]
!! TF[0] U3K[0] U3[0] U4[0] U4Ü[0] U5[5] U6K[0] U6[8] U7K[0] U7[0]
!! N1[27] N2K[0] N2[16] N3K[0] N3[30] N4[8] N4Ü[0] N5[5] N6K[0] N6[0]
!!!n7k: 0] N7[0] O1[0] O2K[0] O2[0] O3K[0] O3[0] HÖ[0
